;FLAVOR:Marlin
;TIME:2522
;Filament used: 2.09097m
;Layer height: 0.2
;Cura Time Estimate:  2522sec = 0hr 42min 2sec 
M117 ET 0hr 35min
;MINX:77.7
;MINY:72.798
;MINZ:0.2
;MAXX:147.299
;MAXY:122.409
;MAXZ:4.24
;TARGET_MACHINE.NAME:Creality Ender-3
;POSTPROCESSED
;  [CreateThumbnail]
;  [CreateThumbnail]
;  [DisplayInfoOnLCD]
;Generated with Cura_SteamEngine 5.10.0-beta.1
;
;

;
;

M140 S50
M105
M190 S50
M104 S210
M105
M109 S210
START_PRINT
M82 ;absolute extrusion mode
G92 E0
G92 E0
G1 F3000 E-2.5
;LAYER_COUNT:19
;LAYER:0
M117 1/19 | ET 34m
M107
G1 F300 Z0.4
;MESH:Part 1(1)
G0 F9000 X87.742 Y80.649 Z0.4
;TYPE:WALL-OUTER
G1 F300 Z0.2
G1 F3000 E0
G1 F4500 X88.198 Y80.781 E0.01579
G1 X88.546 Y80.95 E0.02866
G1 X88.84 Y81.189 E0.04126
G1 X89.166 Y81.57 E0.05794
G1 X89.42 Y82.181 E0.07994
G1 X89.455 Y82.81 E0.1009
G1 X89.281 Y83.433 E0.12241
G1 X89.082 Y83.741 E0.13461
G1 X88.897 Y83.963 E0.14422
G1 X88.463 Y84.299 E0.16247
G1 X88.064 Y84.47 E0.17691
G1 X87.61 Y84.567 E0.19235
G1 X87.241 Y84.536 E0.20467
G1 X86.946 Y84.471 E0.21472
G1 X86.538 Y84.339 E0.22898
G1 X86.094 Y83.958 E0.24844
G1 X85.849 Y83.699 E0.2603
G1 X85.639 Y83.19 E0.27861
G1 X85.543 Y82.761 E0.29323
G1 X85.558 Y82.411 E0.30488
G1 X85.609 Y82.12 E0.31471
G1 X85.728 Y81.786 E0.3265
G1 X86.026 Y81.266 E0.34644
G1 X86.47 Y80.928 E0.365
G1 X87.06 Y80.685 E0.38622
G1 X87.438 Y80.64 E0.39888
G1 X87.742 Y80.649 E0.409
G1 F3000 E-2.091
G1 F300 Z0.4
G0 F9000 X100.634 Y79.603 Z0.4
G1 F300 Z0.2
G1 F3000 E0.409
G1 F4500 X114.157 Y83.98 E0.88175
G1 X114.415 Y84.245 E0.89405
G1 X114.51 Y84.585 E0.90579
G1 X114.46 Y84.839 E0.9144
G1 X114.279 Y85.12 E0.92552
G1 X114.037 Y85.264 E0.93488
G1 X113.887 Y85.297 E0.93999
G1 X100.409 Y85.295 E1.38827
G1 X100.188 Y85.228 E1.39595
G1 X99.946 Y85.026 E1.40644
G1 X99.804 Y84.722 E1.4176
G1 X99.806 Y80.212 E1.5676
G1 X99.862 Y80.003 E1.5748
G1 X99.982 Y79.817 E1.58216
G1 X100.267 Y79.621 E1.59366
G1 X100.634 Y79.603 E1.60588
G1 F3000 E-0.89412
G1 F300 Z0.4
G0 F9000 X112.5 Y79.909 Z0.4
G1 F300 Z0.2
G1 F3000 E1.60588
G1 F4500 X124.619 Y79.908 E2.00896
G1 X124.955 Y80.057 E2.02119
G1 X125.2 Y80.427 E2.03595
G1 X125.192 Y84.993 E2.18781
G1 X125.103 Y85.261 E2.19721
G1 X124.877 Y85.509 E2.20837
G1 X124.587 Y85.61 E2.21858
G1 X124.314 Y85.591 E2.22768
G1 X110.889 Y81.239 E2.69707
G1 X110.656 Y81.047 E2.70712
G1 X110.499 Y80.753 E2.7182
G1 X110.532 Y80.369 E2.73102
G1 X110.643 Y80.172 E2.73854
G1 X110.88 Y79.979 E2.74871
G1 X111.095 Y79.909 E2.75623
G1 X112.5 Y79.909 E2.80296
G1 F3000 E0.30296
G1 F300 Z0.4
G0 F9000 X112.5 Y77.801 Z0.4
G1 F300 Z0.2
G1 F3000 E2.80296
G1 F4500 X96.121 Y77.804 E3.34773
G1 X95.995 Y77.718 E3.3528
G1 X95.708 Y77.258 E3.37083
G1 X95.409 Y76.822 E3.38842
G1 X95.104 Y76.423 E3.40512
G1 X94.716 Y75.976 E3.42481
G1 X94.387 Y75.635 E3.44057
G1 X94.027 Y75.298 E3.45697
G1 X93.497 Y74.855 E3.47994
G1 X92.952 Y74.463 E3.50227
G1 X92.433 Y74.137 E3.52266
G1 X91.902 Y73.84 E3.54289
G1 X91.231 Y73.542 E3.56731
G1 X90.486 Y73.259 E3.59382
G1 X90.473 Y73.269 E3.59436
G1 X90.202 Y73.185 E3.6038
G1 X89.446 Y73 E3.62969
G1 X88.765 Y72.879 E3.65269
G1 X88.191 Y72.828 E3.67186
G1 X87.585 Y72.805 E3.69203
G1 X87.214 Y72.808 E3.70437
G1 X86.787 Y72.828 E3.71859
G1 X86.152 Y72.891 E3.73981
G1 X85.446 Y73.02 E3.76368
G1 X85.076 Y73.11 E3.77635
G1 X84.485 Y73.279 E3.79679
G1 X83.988 Y73.451 E3.81428
G1 X83.404 Y73.698 E3.83537
G1 X82.867 Y73.965 E3.85532
G1 X82.429 Y74.219 E3.87216
G1 X81.992 Y74.498 E3.8894
G1 X81.586 Y74.788 E3.906
G1 X81.112 Y75.172 E3.92629
G1 X80.616 Y75.632 E3.94879
G1 X80.252 Y76.003 E3.96607
G1 X79.939 Y76.372 E3.98217
G1 X79.648 Y76.737 E3.99769
G1 X79.402 Y77.081 E4.01176
G1 X79.195 Y77.398 E4.02435
G1 X78.905 Y77.892 E4.0434
G1 X78.555 Y78.594 E4.06949
G1 X78.214 Y79.458 E4.10039
G1 X77.979 Y80.256 E4.12806
G1 X77.814 Y81.117 E4.15721
G1 X77.744 Y81.644 E4.1749
G1 X77.712 Y82.13 E4.1911
G1 X77.7 Y82.503 E4.20351
G1 X77.704 Y83.057 E4.22193
G1 X77.795 Y83.955 E4.25196
G1 X77.853 Y84.344 E4.26504
G1 X77.975 Y84.908 E4.28423
G1 X78.12 Y85.434 E4.30238
G1 X78.218 Y85.739 E4.31303
G1 X78.383 Y86.198 E4.32925
G1 X78.604 Y86.709 E4.34777
G1 X78.68 Y86.749 E4.35063
G1 X78.716 Y86.947 E4.35732
G1 X78.864 Y87.231 E4.36797
G1 X79.179 Y87.783 E4.38911
G1 X79.361 Y88.062 E4.40019
G1 X79.83 Y88.704 E4.42664
G1 X80.15 Y89.083 E4.44313
G1 X80.508 Y89.468 E4.46062
G1 X80.789 Y89.745 E4.47374
G1 X81.186 Y90.095 E4.49135
G1 X81.436 Y90.302 E4.50214
G1 X81.868 Y90.62 E4.51998
G1 X82.189 Y90.84 E4.53293
G1 X82.502 Y91.031 E4.54512
G1 X82.857 Y91.23 E4.55866
G1 X83.667 Y91.627 E4.58866
G1 X84.494 Y91.929 E4.61794
G1 X85.158 Y92.118 E4.6409
G1 X85.594 Y92.215 E4.65576
G1 X86.353 Y92.337 E4.68133
G1 X86.782 Y92.376 E4.69566
G1 X87.187 Y92.396 E4.70914
G1 X87.567 Y92.403 E4.72178
G1 X87.976 Y92.392 E4.73539
G1 X88.434 Y92.353 E4.75068
G1 X89.268 Y92.246 E4.77865
G1 X89.759 Y92.133 E4.7954
G1 X90.378 Y91.968 E4.81671
G1 X90.832 Y91.819 E4.8326
G1 X91.191 Y91.679 E4.84542
G1 X91.734 Y91.438 E4.86518
G1 X92.062 Y91.275 E4.87736
G1 X92.548 Y91 E4.89593
G1 X93.082 Y90.654 E4.9171
G1 X93.41 Y90.417 E4.93056
G1 X93.791 Y90.11 E4.94683
G1 X94.139 Y89.809 E4.96213
G1 X94.651 Y89.294 E4.98629
G1 X94.971 Y88.942 E5.00211
G1 X95.277 Y88.557 E5.01847
G1 X95.614 Y88.109 E5.03711
G1 X95.615 Y88.088 E5.03781
G1 X96.005 Y87.476 E5.06195
G1 X96.16 Y87.404 E5.06763
G1 X128.884 Y87.404 E6.15604
G1 X129.003 Y87.486 E6.16085
G1 X129.347 Y88.037 E6.18245
G1 X129.705 Y88.539 E6.20296
G1 X129.891 Y88.781 E6.21311
G1 X130.327 Y89.279 E6.23512
G1 X130.837 Y89.789 E6.25911
G1 X131.257 Y90.154 E6.27762
G1 X131.569 Y90.404 E6.29092
G1 X132.005 Y90.714 E6.30871
G1 X132.543 Y91.06 E6.32999
G1 X133.251 Y91.435 E6.35663
G1 X133.596 Y91.592 E6.36924
G1 X133.955 Y91.74 E6.38216
G1 X134.616 Y91.968 E6.40541
G1 X134.967 Y92.066 E6.41753
G1 X135.459 Y92.188 E6.43439
G1 X135.877 Y92.266 E6.44853
G1 X136.47 Y92.349 E6.46845
G1 X137.095 Y92.399 E6.4893
G1 X138.007 Y92.388 E6.51964
G1 X138.586 Y92.345 E6.53895
G1 X139.235 Y92.251 E6.56076
G1 X139.927 Y92.097 E6.58434
G1 X140.325 Y91.985 E6.59809
G1 X140.578 Y91.891 E6.60707
G1 X140.599 Y91.904 E6.60789
G1 X141.413 Y91.587 E6.63694
G1 X141.768 Y91.424 E6.64994
G1 X142.116 Y91.244 E6.66297
G1 X142.564 Y90.988 E6.68013
G1 X143.11 Y90.639 E6.70168
G1 X143.413 Y90.417 E6.71418
G1 X143.897 Y90.024 E6.73491
G1 X144.47 Y89.49 E6.76096
G1 X144.727 Y89.218 E6.77341
G1 X145.124 Y88.754 E6.79372
G1 X145.462 Y88.31 E6.81228
G1 X145.685 Y87.989 E6.82528
G1 X145.904 Y87.64 E6.83898
G1 X146.096 Y87.308 E6.85174
G1 X146.445 Y86.606 E6.87781
G1 X146.597 Y86.238 E6.89106
G1 X146.782 Y85.74 E6.90873
G1 X146.943 Y85.209 E6.92718
G1 X147.044 Y84.819 E6.94058
G1 X147.17 Y84.183 E6.96215
G1 X147.237 Y83.698 E6.97843
G1 X147.292 Y82.998 E7.00178
G1 X147.299 Y82.526 E7.01748
G1 X147.292 Y82.234 E7.0272
G1 X147.256 Y81.726 E7.04414
G1 X147.205 Y81.256 E7.05986
G1 X147.103 Y80.655 E7.08014
G1 X147.018 Y80.277 E7.09302
G1 X146.88 Y79.779 E7.11021
G1 X146.719 Y79.297 E7.12711
G1 X146.487 Y78.703 E7.14832
G1 X146.332 Y78.368 E7.1606
G1 X146.107 Y77.924 E7.17716
G1 X145.861 Y77.497 E7.19355
G1 X145.479 Y76.91 E7.21684
G1 X145.06 Y76.371 E7.23955
G1 X144.713 Y75.965 E7.25731
G1 X144.202 Y75.458 E7.28125
G1 X143.751 Y75.054 E7.30139
G1 X143.133 Y74.584 E7.32721
G1 X142.658 Y74.271 E7.34613
G1 X142.158 Y73.981 E7.36536
G1 X141.512 Y73.667 E7.38925
G1 X140.776 Y73.353 E7.41586
G1 X139.808 Y73.071 E7.4494
G1 X139.178 Y72.95 E7.47073
G1 X138.674 Y72.875 E7.48768
G1 X138.268 Y72.832 E7.50126
G1 X137.809 Y72.808 E7.51655
G1 X137.435 Y72.805 E7.52899
G1 X136.83 Y72.828 E7.54913
G1 X136.341 Y72.875 E7.56546
G1 X135.606 Y72.989 E7.5902
G1 X135.097 Y73.103 E7.60755
G1 X134.741 Y73.2 E7.61982
G1 X134.354 Y73.322 E7.63332
G1 X133.787 Y73.534 E7.65345
G1 X133.31 Y73.742 E7.67076
G1 X133.002 Y73.897 E7.68223
G1 X132.498 Y74.177 E7.70141
G1 X132.091 Y74.431 E7.71736
G1 X131.589 Y74.785 E7.73779
G1 X131.276 Y75.035 E7.75112
G1 X130.982 Y75.285 E7.76395
G1 X130.633 Y75.615 E7.77993
G1 X130.311 Y75.944 E7.79524
G1 X129.899 Y76.416 E7.81608
G1 X129.658 Y76.727 E7.82916
G1 X129.284 Y77.266 E7.85098
G1 X128.999 Y77.727 E7.86901
G1 X128.892 Y77.798 E7.87328
G1 X112.5 Y77.801 E8.41848
G1 F3000 E5.91848
G1 F300 Z0.4
G0 F9000 X137.415 Y80.64 Z0.4
G1 F300 Z0.2
G1 F3000 E8.41848
G1 F4500 X137.756 Y80.651 E8.42983
G1 X138.215 Y80.787 E8.44575
G1 X138.543 Y80.949 E8.45792
G1 X138.833 Y81.181 E8.47027
G1 X139.169 Y81.575 E8.48749
G1 X139.422 Y82.19 E8.50961
G1 X139.451 Y82.824 E8.53072
G1 X139.328 Y83.374 E8.54947
G1 X139.088 Y83.734 E8.56386
G1 X138.882 Y83.978 E8.57448
G1 X138.456 Y84.303 E8.5923
G1 X138.055 Y84.472 E8.60677
G1 X137.613 Y84.566 E8.6218
G1 X137.256 Y84.539 E8.63371
G1 X136.946 Y84.471 E8.64427
G1 X136.527 Y84.329 E8.65898
G1 X136.094 Y83.958 E8.67794
G1 X135.848 Y83.699 E8.68983
G1 X135.636 Y83.18 E8.70847
G1 X135.54 Y82.742 E8.72339
G1 X135.558 Y82.414 E8.73431
G1 X135.615 Y82.1 E8.74493
G1 X135.719 Y81.808 E8.75524
G1 X136.036 Y81.26 E8.77629
G1 X136.453 Y80.938 E8.79382
G1 X137.046 Y80.689 E8.81521
G1 X137.415 Y80.64 E8.82759
G0 F9000 X137.82 Y80.252
;TYPE:WALL-INNER
G1 F4500 X137.408 Y80.24 E8.8413
G1 X136.948 Y80.295 E8.85671
G1 X136.26 Y80.582 E8.8815
G1 X135.723 Y80.994 E8.90401
G1 X135.369 Y81.611 E8.92767
G1 X135.22 Y82.013 E8.94193
G1 X135.156 Y82.413 E8.9554
G1 X135.142 Y82.778 E8.96755
G1 X135.259 Y83.317 E8.9859
G1 X135.508 Y83.919 E9.00756
G1 X135.843 Y84.271 E9.02373
G1 X136.325 Y84.683 E9.04482
G1 X136.847 Y84.859 E9.06314
G1 X137.201 Y84.935 E9.07518
G1 X137.613 Y84.974 E9.08895
G1 X138.193 Y84.852 E9.10866
G1 X138.662 Y84.646 E9.1257
G1 X139.164 Y84.267 E9.14662
G1 X139.39 Y83.997 E9.15833
G1 X139.702 Y83.53 E9.17701
G1 X139.851 Y82.843 E9.20039
G1 X139.82 Y82.091 E9.22542
G1 X139.507 Y81.353 E9.25208
G1 X139.097 Y80.88 E9.2729
G1 X138.733 Y80.596 E9.28826
G1 X138.328 Y80.403 E9.30318
G1 X137.82 Y80.252 E9.32081
G0 F9000 X137.393 Y79.84
G1 F4500 X137.908 Y79.86 E9.33795
G1 X138.528 Y80.051 E9.35953
G1 X138.987 Y80.279 E9.37657
G1 X139.401 Y80.612 E9.39424
G1 X139.867 Y81.164 E9.41827
G1 X140.213 Y81.994 E9.44818
G1 X140.257 Y82.875 E9.47752
G1 X140.071 Y83.701 E9.50568
G1 X139.744 Y84.192 E9.5253
G1 X139.432 Y84.565 E9.54147
G1 X138.854 Y85.003 E9.56559
G1 X138.32 Y85.232 E9.58492
G1 X137.635 Y85.378 E9.60821
G1 X137.146 Y85.331 E9.62455
G1 X136.74 Y85.244 E9.63836
G1 X136.121 Y85.038 E9.66006
G1 X135.514 Y84.509 E9.68684
G1 X135.166 Y84.136 E9.70381
G1 X134.878 Y83.437 E9.72895
G1 X134.734 Y82.809 E9.75038
G1 X134.762 Y82.336 E9.76614
G1 X134.835 Y81.917 E9.78029
G1 X134.998 Y81.459 E9.79646
G1 X135.358 Y80.82 E9.82085
G1 X135.552 Y80.621 E9.8301
G1 X136.032 Y80.251 E9.85025
G1 X136.843 Y79.906 E9.87957
G1 X137.393 Y79.84 E9.89799
G1 F3000 E7.39799
G1 F300 Z0.4
G0 F9000 X138.542 Y91.947 Z0.4
G1 F300 Z0.2
G1 F3000 E9.89799
G1 F4500 X137.989 Y91.988 E9.91643
G1 X137.109 Y91.999 E9.94571
G1 X136.514 Y91.951 E9.96556
G1 X135.941 Y91.871 E9.9848
G1 X135.544 Y91.797 E9.99823
G1 X134.735 Y91.586 E10.02604
G1 X134.097 Y91.366 E10.04849
G1 X133.755 Y91.225 E10.06079
G1 X133.425 Y91.075 E10.07285
G1 X132.747 Y90.716 E10.09836
G1 X132.229 Y90.382 E10.11886
G1 X131.81 Y90.085 E10.13595
G1 X131.513 Y89.847 E10.1486
G1 X131.11 Y89.496 E10.16638
G1 X130.619 Y89.006 E10.18945
G1 X130.201 Y88.527 E10.2106
G1 X130.023 Y88.296 E10.2203
G1 X129.68 Y87.815 E10.23994
G1 X129.327 Y87.252 E10.26205
G1 X129.159 Y87.095 E10.26969
G1 X128.949 Y87.004 E10.27731
G1 X96.047 Y87.004 E11.37163
G1 X95.807 Y87.118 E11.38047
G1 X95.696 Y87.222 E11.38553
G1 X95.277 Y87.874 E11.41131
G1 X95.277 Y87.893 E11.41194
G1 X94.961 Y88.312 E11.42939
G1 X94.667 Y88.682 E11.44511
G1 X94.361 Y89.018 E11.46023
G1 X93.866 Y89.517 E11.4836
G1 X93.535 Y89.803 E11.49815
G1 X93.167 Y90.099 E11.51386
G1 X92.856 Y90.324 E11.52663
G1 X92.341 Y90.658 E11.54704
G1 X91.874 Y90.922 E11.56489
G1 X91.564 Y91.076 E11.5764
G1 X91.037 Y91.31 E11.59558
G1 X90.697 Y91.443 E11.60772
G1 X90.264 Y91.584 E11.62287
G1 X89.663 Y91.745 E11.64356
G1 X89.198 Y91.852 E11.65943
G1 X88.392 Y91.955 E11.68646
G1 X87.953 Y91.992 E11.70111
G1 X87.565 Y92.003 E11.71402
G1 X86.81 Y91.977 E11.73915
G1 X86.403 Y91.94 E11.75274
G1 X85.67 Y91.822 E11.77743
G1 X85.256 Y91.73 E11.79154
G1 X84.618 Y91.548 E11.8136
G1 X83.824 Y91.259 E11.84171
G1 X83.043 Y90.876 E11.87064
G1 X82.704 Y90.686 E11.88356
G1 X82.407 Y90.504 E11.89515
G1 X82.1 Y90.294 E11.90752
G1 X81.682 Y89.987 E11.92477
G1 X81.062 Y89.452 E11.95201
G1 X80.795 Y89.19 E11.96445
G1 X80.45 Y88.817 E11.98135
G1 X80.145 Y88.456 E11.99707
G1 X79.69 Y87.834 E12.0227
G1 X79.521 Y87.575 E12.03299
G1 X79.119 Y86.87 E12.05998
G1 X79.086 Y86.674 E12.06659
G1 X79.008 Y86.52 E12.07233
G1 X78.943 Y86.486 E12.07477
G1 X78.755 Y86.051 E12.09053
G1 X78.503 Y85.32 E12.11625
G1 X78.363 Y84.812 E12.13377
G1 X78.247 Y84.272 E12.15215
G1 X78.192 Y83.905 E12.16449
G1 X78.104 Y83.035 E12.19357
G1 X78.1 Y82.508 E12.2111
G1 X78.112 Y82.149 E12.22305
G1 X78.142 Y81.684 E12.23855
G1 X78.209 Y81.181 E12.25542
G1 X78.368 Y80.35 E12.28356
G1 X78.593 Y79.588 E12.30999
G1 X78.921 Y78.757 E12.3397
G1 X79.257 Y78.082 E12.36478
G1 X79.535 Y77.609 E12.38303
G1 X79.732 Y77.307 E12.39502
G1 X79.967 Y76.978 E12.40847
G1 X80.248 Y76.626 E12.42345
G1 X80.548 Y76.273 E12.43886
G1 X80.895 Y75.918 E12.45537
G1 X81.374 Y75.474 E12.47709
G1 X81.828 Y75.106 E12.49653
G1 X82.216 Y74.83 E12.51237
G1 X82.637 Y74.561 E12.52898
G1 X83.057 Y74.317 E12.54514
G1 X83.571 Y74.062 E12.56422
G1 X84.132 Y73.825 E12.58448
G1 X84.605 Y73.661 E12.60113
G1 X85.178 Y73.497 E12.62095
G1 X85.529 Y73.412 E12.63297
G1 X86.208 Y73.287 E12.65593
G1 X86.816 Y73.227 E12.67625
G1 X87.225 Y73.208 E12.68987
G1 X87.579 Y73.205 E12.70164
G1 X88.165 Y73.227 E12.72115
G1 X88.712 Y73.276 E12.73941
G1 X89.364 Y73.392 E12.76144
G1 X90.096 Y73.571 E12.7865
G1 X90.363 Y73.654 E12.7958
G1 X90.375 Y73.645 E12.7963
G1 X91.079 Y73.912 E12.82134
G1 X91.723 Y74.198 E12.84478
G1 X92.229 Y74.481 E12.86406
G1 X92.728 Y74.795 E12.88367
G1 X93.251 Y75.171 E12.9051
G1 X93.762 Y75.598 E12.92724
G1 X94.107 Y75.92 E12.94294
G1 X94.421 Y76.246 E12.958
G1 X94.794 Y76.676 E12.97693
G1 X95.085 Y77.056 E12.99285
G1 X95.373 Y77.477 E13.00981
G1 X95.679 Y77.964 E13.02894
G1 X95.816 Y78.096 E13.03527
G1 X95.972 Y78.175 E13.04109
G1 X96.16 Y78.204 E13.04741
G1 X112.5 Y78.204 E13.59088
G1 X128.955 Y78.204 E14.13818
G1 X129.21 Y78.077 E14.14765
G1 X129.315 Y77.971 E14.15262
G1 X129.619 Y77.485 E14.17168
G1 X129.981 Y76.964 E14.19278
G1 X130.208 Y76.67 E14.20514
G1 X130.605 Y76.216 E14.2252
G1 X130.913 Y75.901 E14.23985
G1 X131.249 Y75.583 E14.25524
G1 X131.829 Y75.105 E14.28023
G1 X132.312 Y74.765 E14.29988
G1 X132.701 Y74.522 E14.31514
G1 X133.131 Y74.282 E14.33151
G1 X133.48 Y74.104 E14.34454
G1 X133.937 Y73.905 E14.36112
G1 X134.484 Y73.7 E14.38055
G1 X134.854 Y73.584 E14.39345
G1 X135.193 Y73.491 E14.40514
G1 X135.68 Y73.382 E14.42174
G1 X136.391 Y73.272 E14.44567
G1 X136.857 Y73.227 E14.46124
G1 X137.441 Y73.205 E14.48068
G1 X137.797 Y73.208 E14.49252
G1 X138.237 Y73.231 E14.50717
G1 X138.624 Y73.272 E14.52012
G1 X139.111 Y73.344 E14.53649
G1 X139.714 Y73.46 E14.55691
G1 X140.641 Y73.73 E14.58903
G1 X141.346 Y74.031 E14.61452
G1 X141.97 Y74.335 E14.63761
G1 X142.448 Y74.611 E14.65597
G1 X142.903 Y74.912 E14.67411
G1 X143.495 Y75.361 E14.69883
G1 X143.928 Y75.749 E14.71816
G1 X144.419 Y76.237 E14.74119
G1 X144.75 Y76.624 E14.75813
G1 X145.157 Y77.148 E14.78019
G1 X145.519 Y77.705 E14.80229
G1 X145.755 Y78.114 E14.81799
G1 X145.972 Y78.542 E14.83395
G1 X146.119 Y78.86 E14.84561
G1 X146.343 Y79.433 E14.86607
G1 X146.497 Y79.895 E14.88227
G1 X146.63 Y80.375 E14.89883
G1 X146.711 Y80.733 E14.91104
G1 X146.809 Y81.311 E14.93054
G1 X146.858 Y81.762 E14.94563
G1 X146.892 Y82.252 E14.96196
G1 X146.899 Y82.534 E14.97135
G1 X146.892 Y82.978 E14.98612
G1 X146.839 Y83.655 E15.0087
G1 X146.775 Y84.117 E15.02421
G1 X146.654 Y84.73 E15.045
G1 X146.558 Y85.101 E15.05774
G1 X146.403 Y85.612 E15.0755
G1 X146.225 Y86.092 E15.09253
G1 X146.079 Y86.443 E15.10517
