;FLAVOR:Marlin
;TIME:2520
;Filament used: 2.09395m
;Layer height: 0.2
;Cura Time Estimate:  2520sec = 0hr 42min 0sec 


; Pre-Processed for Cancel-Object support by preprocess_cancellation v0.2.0
; 2 known objects
EXCLUDE_OBJECT_DEFINE NAME=Part_1_1 CENTER=112.661,86.991 POLYGON=[[77.697,77.204],[77.697,96.805],[147.3,96.805],[147.3,77.204]]
EXCLUDE_OBJECT_DEFINE NAME=Part_1 CENTER=112.698,116.990 POLYGON=[[77.697,107.204],[77.697,126.805],[147.3,126.805],[147.3,107.204]]
M117 ET 0hr 35min
;MINX:77.697
;MINY:77.204
;MINZ:0.2
;MAXX:147.3
;MAXY:126.805
;MAXZ:4.24
;TARGET_MACHINE.NAME:Creality Ender-3
;POSTPROCESSED
;  [CreateThumbnail]
;  [CreateThumbnail]
;  [DisplayInfoOnLCD]
;Generated with Cura_SteamEngine 5.10.0-beta.1
;
;

;
;

M140 S50
M105
M190 S50
M104 S210
M105
M109 S210
START_PRINT
M82 ;absolute extrusion mode
G92 E0
G92 E0
G1 F3000 E-2.5
;LAYER_COUNT:19
;LAYER:0
M117 1/19 | ET 34m
M107
G1 F300 Z0.4
;MESH:Part 1(1)
EXCLUDE_OBJECT_START NAME=Part_1_1
G0 F9000 X87.389 Y85.064 Z0.4
;TYPE:WALL-OUTER
G1 F300 Z0.2
G1 F3000 E0
G1 F4500 X87.892 Y85.079 E0.01674
G1 X88.316 Y85.232 E0.03173
G1 X88.693 Y85.446 E0.04615
G1 X88.997 Y85.75 E0.06045
G1 X89.266 Y86.139 E0.07618
G1 X89.455 Y86.802 E0.09911
G1 X89.439 Y87.295 E0.11551
G1 X89.288 Y87.812 E0.13343
G1 X89.069 Y88.164 E0.14722
G1 X88.799 Y88.481 E0.16107
G1 X88.329 Y88.766 E0.17935
G1 X87.901 Y88.927 E0.19456
G1 X87.561 Y88.952 E0.2059
G1 X87.163 Y88.952 E0.21913
G1 X86.643 Y88.768 E0.23748
G1 X86.357 Y88.587 E0.24874
G1 X85.962 Y88.242 E0.26618
G1 X85.7 Y87.759 E0.28446
G1 X85.552 Y87.254 E0.30196
G1 X85.559 Y86.723 E0.31962
G1 X85.687 Y86.253 E0.33582
G1 X85.913 Y85.87 E0.35061
G1 X86.236 Y85.516 E0.36655
G1 X86.639 Y85.238 E0.38284
G1 X87.166 Y85.058 E0.40136
G1 X87.389 Y85.064 E0.40878
G1 F3000 E-2.09122
G1 F300 Z0.4
G0 F9000 X100.62 Y83.994 Z0.4
G1 F300 Z0.2
G1 F3000 E0.40878
G1 F4500 X114.152 Y88.381 E0.88192
G1 X114.445 Y88.696 E0.89622
G1 X114.497 Y89.054 E0.90826
G1 X114.411 Y89.363 E0.91892
G1 X114.201 Y89.578 E0.92892
G1 X113.943 Y89.701 E0.93843
G1 X100.441 Y89.704 E1.3875
G1 X100.056 Y89.555 E1.40124
G1 X99.878 Y89.324 E1.41093
G1 X99.8 Y89.056 E1.42022
G1 X99.804 Y84.631 E1.56739
G1 X99.874 Y84.382 E1.576
G1 X100.085 Y84.092 E1.58793
G1 X100.324 Y84.016 E1.59627
G1 X100.62 Y83.994 E1.60614
G1 F3000 E-0.89386
G1 F300 Z0.4
G0 F9000 X112.5 Y84.304 Z0.4
G1 F300 Z0.2
G1 F3000 E1.60614
G1 F4500 X124.559 Y84.307 E2.00722
G1 X124.763 Y84.357 E2.01421
G1 X124.982 Y84.501 E2.02293
G1 X125.159 Y84.77 E2.03364
G1 X125.196 Y84.953 E2.03985
G1 X125.193 Y89.393 E2.18752
G1 X125.069 Y89.734 E2.19959
G1 X124.807 Y89.939 E2.21065
G1 X124.571 Y90.014 E2.21889
G1 X124.334 Y89.995 E2.2268
G1 X110.89 Y85.639 E2.69683
G1 X110.658 Y85.453 E2.70672
G1 X110.505 Y85.163 E2.71763
G1 X110.528 Y84.779 E2.73042
G1 X110.621 Y84.597 E2.73722
G1 X110.863 Y84.387 E2.74788
G1 X111.136 Y84.304 E2.75737
G1 X112.5 Y84.304 E2.80274
G1 F3000 E0.30274
G1 F300 Z0.4
G0 F9000 X112.5 Y82.2 Z0.4
G1 F300 Z0.2
G1 F3000 E2.80274
G1 F4500 X96.11 Y82.196 E3.34787
G1 X95.994 Y82.114 E3.35259
G1 X95.736 Y81.701 E3.36879
G1 X95.445 Y81.269 E3.38612
G1 X95.1 Y80.819 E3.40497
G1 X94.72 Y80.38 E3.42429
G1 X94.296 Y79.948 E3.44442
G1 X94.015 Y79.686 E3.4572
G1 X93.571 Y79.313 E3.47648
G1 X93.164 Y79.008 E3.4934
G1 X92.779 Y78.749 E3.50883
G1 X92.434 Y78.537 E3.5223
G1 X92.118 Y78.358 E3.53438
G1 X91.628 Y78.118 E3.55253
G1 X91.006 Y77.85 E3.57505
G1 X90.664 Y77.726 E3.58715
G1 X90.066 Y77.545 E3.60794
G1 X89.715 Y77.456 E3.61998
G1 X89.323 Y77.377 E3.63328
G1 X88.86 Y77.299 E3.6489
G1 X88.373 Y77.244 E3.6652
G1 X87.978 Y77.216 E3.67837
G1 X87.582 Y77.205 E3.69154
G1 X87.194 Y77.208 E3.70445
G1 X86.788 Y77.228 E3.71797
G1 X86.215 Y77.287 E3.73713
G1 X85.519 Y77.405 E3.76061
G1 X85.138 Y77.49 E3.77359
G1 X84.474 Y77.683 E3.79659
G1 X84.119 Y77.808 E3.80911
G1 X83.607 Y78.009 E3.8274
G1 X83.212 Y78.188 E3.84182
G1 X82.695 Y78.459 E3.86124
G1 X82.256 Y78.725 E3.87831
G1 X81.589 Y79.174 E3.90505
G1 X81.586 Y79.193 E3.90569
G1 X81.343 Y79.379 E3.91587
G1 X80.87 Y79.789 E3.93669
G1 X80.617 Y80.027 E3.94824
G1 X80.299 Y80.356 E3.96346
G1 X80.001 Y80.694 E3.97845
G1 X79.758 Y80.995 E3.99132
G1 X79.536 Y81.292 E4.00365
G1 X79.269 Y81.688 E4.01954
G1 X78.998 Y82.132 E4.03684
G1 X78.711 Y82.662 E4.05688
G1 X78.547 Y83.014 E4.0698
G1 X78.394 Y83.375 E4.08284
G1 X78.257 Y83.734 E4.09562
G1 X78.104 Y84.218 E4.1125
G1 X77.987 Y84.641 E4.1271
G1 X77.897 Y85.048 E4.14096
G1 X77.822 Y85.449 E4.15453
G1 X77.767 Y85.831 E4.16737
G1 X77.712 Y86.512 E4.19009
G1 X77.701 Y86.862 E4.20174
G1 X77.708 Y87.371 E4.21867
G1 X77.76 Y88.123 E4.24374
G1 X77.818 Y88.543 E4.25784
G1 X77.892 Y88.939 E4.27124
G1 X77.979 Y89.319 E4.28421
G1 X78.179 Y90.05 E4.30942
G1 X78.391 Y90.614 E4.32946
G1 X78.539 Y90.975 E4.34243
G1 X78.798 Y91.523 E4.36259
G1 X79.033 Y91.936 E4.3784
G1 X79.199 Y91.969 E4.38403
G1 X79.287 Y92.111 E4.38958
G1 X79.242 Y92.276 E4.39527
G1 X79.511 Y92.678 E4.41136
G1 X79.846 Y93.136 E4.43023
G1 X79.859 Y93.136 E4.43066
G1 X80.311 Y93.664 E4.45378
G1 X80.57 Y93.93 E4.46613
G1 X80.939 Y94.283 E4.48311
G1 X81.254 Y94.552 E4.49689
G1 X81.79 Y94.965 E4.5194
G1 X82.249 Y95.275 E4.53782
G1 X82.679 Y95.538 E4.55458
G1 X83.368 Y95.89 E4.58032
G1 X84.012 Y96.161 E4.60356
G1 X84.47 Y96.321 E4.61969
G1 X85.168 Y96.528 E4.64391
G1 X85.18 Y96.52 E4.64439
G1 X85.618 Y96.619 E4.65932
G1 X86.334 Y96.733 E4.68344
G1 X86.841 Y96.784 E4.70038
G1 X87.567 Y96.803 E4.72454
G1 X87.954 Y96.792 E4.73742
G1 X88.361 Y96.764 E4.75099
G1 X88.774 Y96.715 E4.76482
G1 X89.192 Y96.651 E4.77888
G1 X89.704 Y96.548 E4.79625
G1 X90.062 Y96.459 E4.80852
G1 X90.542 Y96.313 E4.82521
G1 X91.016 Y96.149 E4.84189
G1 X91.454 Y95.965 E4.85769
G1 X91.906 Y95.753 E4.8743
G1 X92.388 Y95.494 E4.8925
G1 X92.89 Y95.184 E4.91212
G1 X93.238 Y94.945 E4.92616
G1 X93.548 Y94.71 E4.9391
G1 X93.869 Y94.448 E4.95288
G1 X94.253 Y94.099 E4.97014
G1 X94.705 Y93.639 E4.99159
G1 X94.955 Y93.358 E5.0041
G1 X95.206 Y93.052 E5.01726
G1 X95.556 Y92.581 E5.03678
G1 X95.783 Y92.236 E5.05052
G1 X96.004 Y91.878 E5.06451
G1 X96.108 Y91.81 E5.06864
G1 X128.687 Y91.804 E6.15222
G1 X128.776 Y91.755 E6.1556
G1 X128.875 Y91.761 E6.1589
G1 X128.969 Y91.827 E6.16272
G1 X129.198 Y92.21 E6.17756
G1 X129.422 Y92.551 E6.19113
G1 X129.641 Y92.86 E6.20373
G1 X129.883 Y93.168 E6.21676
G1 X130.292 Y93.64 E6.23753
G1 X130.688 Y94.048 E6.25644
G1 X130.985 Y94.322 E6.26988
G1 X131.421 Y94.691 E6.28888
G1 X131.887 Y95.035 E6.30815
G1 X132.39 Y95.366 E6.32817
G1 X132.728 Y95.564 E6.3412
G1 X133.338 Y95.871 E6.36392
G1 X133.793 Y96.074 E6.38049
G1 X134.262 Y96.251 E6.39716
G1 X134.785 Y96.42 E6.41544
G1 X135.253 Y96.544 E6.43154
G1 X135.877 Y96.666 E6.45269
G1 X136.44 Y96.745 E6.4716
G1 X136.817 Y96.78 E6.48419
G1 X137.344 Y96.8 E6.50173
G1 X137.67 Y96.8 E6.51258
G1 X138.388 Y96.76 E6.53649
G1 X138.793 Y96.717 E6.55004
G1 X139.157 Y96.659 E6.5623
G1 X139.561 Y96.58 E6.57599
G1 X140.059 Y96.458 E6.59304
G1 X140.485 Y96.331 E6.60783
G1 X140.498 Y96.341 E6.60837
G1 X141.224 Y96.066 E6.6342
G1 X141.579 Y95.91 E6.64709
G1 X142.173 Y95.615 E6.66915
G1 X142.622 Y95.353 E6.68644
G1 X143.043 Y95.078 E6.70317
G1 X143.435 Y94.8 E6.71915
G1 X143.743 Y94.554 E6.73226
G1 X144.168 Y94.18 E6.75109
G1 X144.458 Y93.902 E6.76445
G1 X144.739 Y93.605 E6.77805
G1 X145.124 Y93.161 E6.7976
G1 X145.355 Y92.86 E6.81022
G1 X145.594 Y92.527 E6.82385
G1 X145.805 Y92.202 E6.83674
G1 X146.085 Y91.726 E6.85511
G1 X146.233 Y91.446 E6.86564
G1 X146.441 Y91.01 E6.88171
G1 X146.641 Y90.527 E6.89909
G1 X146.798 Y90.092 E6.91448
G1 X146.883 Y89.814 E6.92414
G1 X146.901 Y89.804 E6.92483
G1 X147.004 Y89.387 E6.93912
G1 X147.147 Y88.708 E6.96219
G1 X147.225 Y88.191 E6.97958
G1 X147.28 Y87.618 E6.99873
G1 X147.296 Y87.2 E7.01264
G1 X147.296 Y86.805 E7.02578
G1 X147.28 Y86.417 E7.0387
G1 X147.221 Y85.742 E7.06123
G1 X147.127 Y85.182 E7.08012
G1 X147.013 Y84.661 E7.09786
G1 X146.805 Y83.933 E7.12304
G1 X146.676 Y83.566 E7.13598
G1 X146.531 Y83.198 E7.14913
G1 X146.363 Y82.827 E7.16268
G1 X146.151 Y82.407 E7.17833
G1 X145.904 Y81.967 E7.19511
G1 X145.63 Y81.536 E7.2121
G1 X145.307 Y81.084 E7.23057
G1 X145.061 Y80.772 E7.24379
G1 X144.822 Y80.494 E7.25598
G1 X144.468 Y80.112 E7.27331
G1 X144.192 Y79.843 E7.28612
G1 X143.827 Y79.522 E7.30229
G1 X143.453 Y79.223 E7.31822
G1 X143.136 Y78.988 E7.33134
G1 X142.812 Y78.769 E7.34435
G1 X142.29 Y78.455 E7.36461
G1 X141.783 Y78.192 E7.38361
G1 X141.412 Y78.02 E7.39721
G1 X140.874 Y77.8 E7.41654
G1 X140.449 Y77.66 E7.43142
G1 X139.833 Y77.486 E7.45271
G1 X139.589 Y77.428 E7.46105
G1 X139.182 Y77.35 E7.47484
G1 X138.6 Y77.263 E7.49441
G1 X137.998 Y77.212 E7.5145
G1 X137.377 Y77.205 E7.53516
G1 X137.054 Y77.212 E7.5459
G1 X136.457 Y77.259 E7.56582
G1 X136.066 Y77.31 E7.57894
G1 X135.669 Y77.377 E7.59233
G1 X135.289 Y77.455 E7.60523
G1 X134.967 Y77.536 E7.61627
G1 X134.525 Y77.663 E7.63157
G1 X134.173 Y77.784 E7.64395
G1 X133.813 Y77.921 E7.65676
G1 X133.266 Y78.165 E7.67668
G1 X132.93 Y78.333 E7.68918
G1 X132.569 Y78.533 E7.7029
G1 X132.224 Y78.745 E7.71637
G1 X131.853 Y78.992 E7.7312
G1 X131.274 Y79.432 E7.75538
G1 X130.998 Y79.669 E7.76748
G1 X130.604 Y80.039 E7.78546
G1 X130.407 Y80.241 E7.79484
G1 X129.926 Y80.781 E7.8189
G1 X129.665 Y81.113 E7.83294
G1 X129.429 Y81.442 E7.84641
G1 X129.21 Y81.775 E7.85967
G1 X129.001 Y82.118 E7.87302
G1 X128.873 Y82.204 E7.87815
G1 X112.5 Y82.2 E8.42272
G1 F3000 E5.92272
G1 F300 Z0.4
G0 F9000 X137.256 Y84.712 Z0.4
G1 F300 Z0.2
G1 F3000 E8.42272
G1 F4500 X137.731 Y84.714 E8.43852
G1 X138.167 Y84.791 E8.45325
G1 X138.529 Y84.938 E8.46624
G1 X138.965 Y85.217 E8.48346
G1 X139.339 Y85.611 E8.50153
G1 X139.607 Y86.066 E8.51909
G1 X139.721 Y86.404 E8.53095
G1 X139.8 Y86.798 E8.54432
G1 X139.786 Y87.245 E8.55919
G1 X139.726 Y87.605 E8.57133
G1 X139.517 Y88.13 E8.59013
G1 X139.332 Y88.408 E8.60123
G1 X138.884 Y88.868 E8.62259
G1 X138.363 Y89.139 E8.64212
G1 X138.022 Y89.242 E8.65397
G1 X137.715 Y89.292 E8.66432
G1 X137.24 Y89.3 E8.68012
G1 X136.765 Y89.184 E8.69638
G1 X136.378 Y89.017 E8.7104
G1 X135.944 Y88.716 E8.72797
G1 X135.666 Y88.396 E8.74206
G1 X135.483 Y88.107 E8.75344
G1 X135.354 Y87.835 E8.76345
G1 X135.231 Y87.458 E8.77664
G1 X135.2 Y87.011 E8.79155
G1 X135.222 Y86.667 E8.80301
G1 X135.318 Y86.255 E8.81708
G1 X135.588 Y85.669 E8.83854
G1 X136.084 Y85.168 E8.86199
G1 X136.516 Y84.922 E8.87852
G1 X136.83 Y84.794 E8.8898
G1 X137.256 Y84.712 E8.90423
G1 F3000 E6.40423
G1 F300 Z0.4
G0 F9000 X135.679 Y89.021 Z0.4
;TYPE:WALL-INNER
G1 F300 Z0.2
G1 F3000 E8.90423
G1 F4500 X136.176 Y89.362 E8.92428
G1 X136.625 Y89.558 E8.94057
G1 X137.185 Y89.701 E8.9598
G1 X137.737 Y89.692 E8.97816
G1 X138.103 Y89.634 E8.99048
G1 X138.523 Y89.507 E9.00508
G1 X139.118 Y89.2 E9.02735
G1 X139.634 Y88.67 E9.05195
G1 X139.872 Y88.314 E9.06619
G1 X140.112 Y87.71 E9.08781
G1 X140.186 Y87.27 E9.10265
G1 X140.2 Y86.791 E9.11859
G1 X140.106 Y86.294 E9.13541
G1 X139.966 Y85.882 E9.14988
G1 X139.665 Y85.379 E9.16938
G1 X139.229 Y84.917 E9.19051
G1 X138.695 Y84.574 E9.21162
G1 X138.317 Y84.418 E9.22522
G1 X137.747 Y84.313 E9.2445
G1 X137.224 Y84.313 E9.26189
G1 X136.7 Y84.416 E9.27965
G1 X136.33 Y84.568 E9.29296
G1 X135.85 Y84.838 E9.31127
G1 X135.269 Y85.417 E9.33855
G1 X134.939 Y86.126 E9.36457
G1 X134.826 Y86.611 E9.38113
G1 X134.8 Y87.043 E9.39552
G1 X134.838 Y87.532 E9.41184
G1 X134.982 Y87.983 E9.42758
G1 X135.139 Y88.311 E9.43968
G1 X135.36 Y88.654 E9.45325
G1 X135.679 Y89.021 E9.46942
G1 F3000 E6.96942
G1 F300 Z0.4
G0 F9000 X137.164 Y83.917 Z0.4
G1 F300 Z0.2
G1 F3000 E9.46942
G1 F4500 X137.781 Y83.915 E9.48994
G1 X138.409 Y84.021 E9.51113
G1 X138.867 Y84.212 E9.52763
G1 X139.465 Y84.587 E9.55111
G1 X139.98 Y85.12 E9.57576
G1 X140.331 Y85.727 E9.59908
G1 X140.49 Y86.184 E9.61517
G1 X140.601 Y86.723 E9.63348
G1 X140.585 Y87.308 E9.65294
G1 X140.5 Y87.829 E9.6705
G1 X140.224 Y88.504 E9.69475
G1 X139.967 Y88.9 E9.71046
G1 X139.362 Y89.524 E9.73936
G1 X138.676 Y89.876 E9.76501
G1 X138.264 Y90.006 E9.77938
G1 X137.805 Y90.09 E9.7949
G1 X137.164 Y90.101 E9.81622
G1 X136.529 Y89.952 E9.83791
G1 X135.984 Y89.718 E9.85764
G1 X135.401 Y89.309 E9.88133
G1 X135.051 Y88.908 E9.89903
G1 X134.804 Y88.531 E9.91402
G1 X134.611 Y88.132 E9.92876
G1 X134.448 Y87.643 E9.94591
G1 X134.4 Y87.055 E9.96553
G1 X134.425 Y86.554 E9.98221
G1 X134.561 Y85.998 E10.00125
G1 X134.921 Y85.202 E10.03031
G1 X135.616 Y84.508 E10.06297
G1 X136.155 Y84.208 E10.08349
G1 X136.6 Y84.024 E10.09951
G1 X137.164 Y83.917 E10.1186
G1 F3000 E7.6186
G1 F300 Z0.4
G0 F9000 X138.74 Y96.321 Z0.4
G1 F300 Z0.2
G1 F3000 E10.1186
G1 F4500 X138.356 Y96.361 E10.13144
G1 X137.659 Y96.4 E10.15466
G1 X137.352 Y96.4 E10.16487
G1 X136.843 Y96.381 E10.18181
G1 X136.486 Y96.347 E10.19374
G1 X135.943 Y96.272 E10.21197
G1 X135.343 Y96.154 E10.23231
G1 X134.898 Y96.036 E10.24762
G1 X134.394 Y95.873 E10.26524
G1 X133.945 Y95.704 E10.2812
G1 X133.51 Y95.509 E10.29705
G1 X132.919 Y95.212 E10.31905
G1 X132.601 Y95.026 E10.3313
G1 X132.116 Y94.707 E10.35061
G1 X131.669 Y94.377 E10.36909
G1 X131.25 Y94.022 E10.38736
G1 X130.967 Y93.762 E10.40014
G1 X130.587 Y93.37 E10.4183
G1 X130.191 Y92.914 E10.43839
G1 X129.961 Y92.621 E10.45077
G1 X129.752 Y92.326 E10.4628
G1 X129.538 Y91.998 E10.47583
G1 X129.284 Y91.572 E10.49232
G1 X128.977 Y91.374 E10.50447
G1 X128.704 Y91.361 E10.51356
G1 X128.627 Y91.404 E10.5165
G1 X96.16 Y91.404 E11.59635
G1 X95.87 Y91.478 E11.60631
G1 X95.692 Y91.627 E11.61403
G1 X95.228 Y92.351 E11.64263
G1 X94.89 Y92.806 E11.66148
G1 X94.651 Y93.098 E11.67403
G1 X94.413 Y93.366 E11.68595
G1 X93.976 Y93.811 E11.7067
G1 X93.608 Y94.145 E11.72323
G1 X93.3 Y94.396 E11.73644
G1 X93.004 Y94.621 E11.74881
G1 X92.672 Y94.848 E11.76218
G1 X92.188 Y95.147 E11.78111
G1 X91.726 Y95.395 E11.79855
G1 X91.292 Y95.599 E11.8145
G1 X90.873 Y95.775 E11.82961
G1 X90.418 Y95.933 E11.84563
G1 X89.956 Y96.073 E11.86169
G1 X89.616 Y96.158 E11.87334
G1 X89.122 Y96.257 E11.8901
G1 X88.792 Y96.309 E11.90121
G1 X88.323 Y96.366 E11.91693
G1 X87.869 Y96.395 E11.93206
G1 X87.566 Y96.403 E11.94214
G1 X86.867 Y96.384 E11.9654
G1 X86.386 Y96.336 E11.98147
G1 X85.694 Y96.226 E12.00478
G1 X85.264 Y96.129 E12.01944
G1 X85.254 Y96.137 E12.01987
G1 X84.593 Y95.94 E12.04281
G1 X84.156 Y95.787 E12.05821
G1 X83.534 Y95.526 E12.08064
G1 X82.877 Y95.19 E12.10518
G1 X82.465 Y94.938 E12.12125
G1 X82.024 Y94.641 E12.13893
G1 X81.506 Y94.242 E12.16068
G1 X81.207 Y93.986 E12.17377
G1 X80.852 Y93.646 E12.19012
G1 X80.605 Y93.392 E12.2019
G1 X80.161 Y92.873 E12.22462
G1 X80.149 Y92.873 E12.22502
G1 X79.834 Y92.442 E12.24278
G1 X79.663 Y92.186 E12.25302
G1 X79.683 Y92.061 E12.25723
G1 X79.601 Y91.824 E12.26557
G1 X79.421 Y91.636 E12.27422
G1 X79.302 Y91.6 E12.27836
G1 X79.153 Y91.339 E12.28835
G1 X78.905 Y90.813 E12.3077
G1 X78.763 Y90.468 E12.32011
G1 X78.56 Y89.926 E12.33936
G1 X78.367 Y89.222 E12.36363
G1 X78.284 Y88.858 E12.37605
G1 X78.213 Y88.479 E12.38888
G1 X78.158 Y88.082 E12.40221
G1 X78.108 Y87.354 E12.42648
G1 X78.101 Y86.866 E12.44271
G1 X78.112 Y86.535 E12.45373
G1 X78.165 Y85.875 E12.47575
G1 X78.217 Y85.514 E12.48788
G1 X78.289 Y85.128 E12.50094
G1 X78.375 Y84.738 E12.51422
G1 X78.488 Y84.332 E12.52824
G1 X78.635 Y83.866 E12.54449
G1 X78.765 Y83.524 E12.55666
G1 X78.913 Y83.177 E12.56921
G1 X79.069 Y82.842 E12.5815
G1 X79.345 Y82.332 E12.60078
G1 X79.606 Y81.904 E12.61746
G1 X79.862 Y81.524 E12.6327
G1 X80.074 Y81.241 E12.64446
G1 X80.307 Y80.952 E12.65681
G1 X80.593 Y80.628 E12.67118
G1 X80.898 Y80.312 E12.68579
G1 X81.138 Y80.086 E12.69675
G1 X81.597 Y79.689 E12.71694
G1 X81.836 Y79.505 E12.72697
G1 X81.839 Y79.488 E12.72754
G1 X82.472 Y79.062 E12.75292
G1 X82.891 Y78.807 E12.76923
G1 X83.388 Y78.548 E12.78787
G1 X83.763 Y78.377 E12.80158
G1 X84.195 Y78.206 E12.81703
G1 X84.597 Y78.064 E12.83122
G1 X85.238 Y77.878 E12.85341
G1 X85.596 Y77.798 E12.86562
G1 X86.269 Y77.683 E12.88832
G1 X86.818 Y77.627 E12.90668
G1 X87.206 Y77.608 E12.9196
G1 X87.578 Y77.605 E12.93197
G1 X87.958 Y77.616 E12.94462
G1 X88.337 Y77.642 E12.95725
G1 X88.804 Y77.695 E12.97288
G1 X89.626 Y77.846 E13.00068
