;FLAVOR:Marlin
;TIME:2291
;Filament used: 1.89146m
;Layer height: 0.2
;Cura Time Estimate:  2291sec = 0hr 38min 11sec 
M117 ET 0hr 32min
;MINX:77.693
;MINY:70.976
;MINZ:0.2
;MAXX:147.306
;MAXY:120.576
;MAXZ:4.24
;TARGET_MACHINE.NAME:Creality Ender-3
;POSTPROCESSED
;  [CreateThumbnail]
;  [CreateThumbnail]
;  [DisplayInfoOnLCD]
;Generated with Cura_SteamEngine 5.10.0-beta.1
;
;

;
;

M140 S50
M105
M190 S50
M104 S210
M105
M109 S210
START_PRINT
M82 ;absolute extrusion mode
G92 E0
G92 E0
G1 F3000 E-2.5
;LAYER_COUNT:19
;LAYER:0
M117 1/19 | ET 31m
M107
G1 F300 Z0.4
;MESH:Part 1(1)
G0 F9000 X87.424 Y78.815 Z0.4
;TYPE:WALL-OUTER
G1 F300 Z0.2
G1 F3000 E0
G1 F4500 X87.819 Y78.844 E0.01317
G1 X88.207 Y78.959 E0.02663
G1 X88.59 Y79.161 E0.04103
G1 X88.833 Y79.353 E0.05134
G1 X89.131 Y79.711 E0.06683
G1 X89.35 Y80.119 E0.08223
G1 X89.399 Y80.385 E0.09123
G1 X89.432 Y80.512 E0.09559
G1 X89.455 Y80.979 E0.11114
G1 X89.278 Y81.607 E0.13284
G1 X89.082 Y81.913 E0.14493
G1 X88.882 Y82.15 E0.15524
G1 X88.679 Y82.329 E0.16424
G1 X88.374 Y82.517 E0.17616
G1 X87.951 Y82.69 E0.19136
G1 X87.485 Y82.732 E0.20692
G1 X87.136 Y82.691 E0.21861
G1 X86.656 Y82.551 E0.23524
G1 X86.186 Y82.246 E0.25388
G1 X85.834 Y81.804 E0.27267
G1 X85.643 Y81.384 E0.28802
G1 X85.54 Y80.919 E0.30386
G1 X85.587 Y80.397 E0.32129
G1 X85.684 Y80.052 E0.33321
G1 X85.872 Y79.698 E0.34654
G1 X86.155 Y79.349 E0.36148
G1 X86.5 Y79.1 E0.37564
G1 X86.95 Y78.904 E0.39196
G1 X87.424 Y78.815 E0.408
G1 F3000 E-2.092
G1 F300 Z0.4
G0 F9000 X100.132 Y77.76 Z0.4
G1 F300 Z0.2
G1 F3000 E0.408
G1 F4500 X115.752 Y82.633 E0.95222
G1 X115.97 Y82.762 E0.96064
G1 X116.162 Y83.079 E0.97297
G1 X116.175 Y83.41 E0.98399
G1 X115.998 Y83.763 E0.99712
G1 X115.675 Y83.97 E1.00988
G1 X99.905 Y83.972 E1.53439
G1 X99.545 Y83.816 E1.54744
G1 X99.38 Y83.602 E1.55643
G1 X99.3 Y83.348 E1.56529
G1 X99.305 Y78.378 E1.73059
G1 X99.375 Y78.138 E1.73891
G1 X99.555 Y77.918 E1.74836
G1 X99.833 Y77.772 E1.75881
G1 X100.132 Y77.76 E1.76876
G1 F3000 E-0.73124
G1 F300 Z0.4
G0 F9000 X112.5 Y77.578 Z0.4
G1 F300 Z0.2
G1 F3000 E1.76876
G1 F4500 X125.084 Y77.576 E2.1873
G1 X125.394 Y77.686 E2.19824
G1 X125.696 Y78.079 E2.21473
G1 X125.7 Y83.171 E2.38409
G1 X125.597 Y83.474 E2.39473
G1 X125.326 Y83.723 E2.40697
G1 X124.946 Y83.812 E2.41996
G1 X109.182 Y78.907 E2.96906
G1 X108.872 Y78.578 E2.9841
G1 X108.819 Y78.246 E2.99528
G1 X108.906 Y77.942 E3.0058
G1 X109.106 Y77.715 E3.01586
G1 X109.445 Y77.578 E3.02802
G1 X112.5 Y77.578 E3.12963
G1 F3000 E0.62963
G1 F300 Z0.4
G0 F9000 X112.5 Y75.973 Z0.4
G1 F300 Z0.2
G1 F3000 E3.12963
G1 F4500 X96.116 Y75.973 E3.67456
G1 X95.993 Y75.894 E3.67943
G1 X95.649 Y75.335 E3.70126
G1 X95.265 Y74.798 E3.72321
G1 X94.908 Y74.364 E3.74191
G1 X94.556 Y73.98 E3.75923
G1 X94.179 Y73.611 E3.77678
G1 X93.786 Y73.261 E3.79428
G1 X93.49 Y73.024 E3.80689
G1 X93.007 Y72.674 E3.82673
G1 X92.6 Y72.412 E3.84283
G1 X92.101 Y72.129 E3.86191
G1 X91.643 Y71.898 E3.87897
G1 X91.042 Y71.643 E3.90069
G1 X90.376 Y71.399 E3.92428
G1 X90.363 Y71.41 E3.92484
G1 X90.058 Y71.317 E3.93545
G1 X89.69 Y71.223 E3.94808
G1 X89.32 Y71.145 E3.96066
G1 X88.659 Y71.043 E3.9829
G1 X88.088 Y70.992 E4.00197
G1 X87.485 Y70.977 E4.02203
G1 X86.871 Y70.996 E4.04246
G1 X86.467 Y71.027 E4.05594
G1 X85.518 Y71.176 E4.08789
G1 X84.759 Y71.369 E4.11394
G1 X84.252 Y71.525 E4.13158
G1 X83.477 Y71.84 E4.15941
G1 X83.123 Y72.007 E4.17243
G1 X82.553 Y72.318 E4.19402
G1 X82.118 Y72.584 E4.21098
G1 X81.683 Y72.89 E4.22867
G1 X81.437 Y73.077 E4.23895
G1 X81.028 Y73.415 E4.2566
G1 X80.338 Y74.082 E4.28851
G1 X79.95 Y74.524 E4.30808
G1 X79.701 Y74.84 E4.32146
G1 X79.312 Y75.394 E4.34397
G1 X78.997 Y75.905 E4.36394
G1 X78.759 Y76.339 E4.3804
G1 X78.54 Y76.803 E4.39747
G1 X78.328 Y77.351 E4.41701
G1 X78.313 Y77.356 E4.41753
G1 X78.12 Y77.934 E4.4378
G1 X77.963 Y78.524 E4.45811
G1 X77.877 Y78.91 E4.47126
G1 X77.791 Y79.447 E4.48935
G1 X77.724 Y80.064 E4.50999
G1 X77.701 Y80.619 E4.52847
G1 X77.708 Y81.113 E4.5449
G1 X77.736 Y81.622 E4.56185
G1 X77.81 Y82.238 E4.58249
G1 X77.892 Y82.695 E4.59793
G1 X78.03 Y83.288 E4.61818
G1 X78.226 Y83.945 E4.64099
G1 X78.363 Y84.322 E4.65433
G1 X78.583 Y84.841 E4.67308
G1 X78.751 Y85.193 E4.68605
G1 X78.943 Y85.55 E4.69953
G1 X79.136 Y85.884 E4.71236
G1 X79.354 Y86.227 E4.72588
G1 X79.848 Y86.894 E4.75349
G1 X80.175 Y87.284 E4.77041
G1 X80.436 Y87.568 E4.78324
G1 X80.943 Y88.06 E4.80674
G1 X81.248 Y88.321 E4.82009
G1 X81.545 Y88.556 E4.83269
G1 X82.104 Y88.957 E4.85557
G1 X82.447 Y89.172 E4.86903
G1 X83.099 Y89.533 E4.89382
G1 X83.458 Y89.705 E4.90706
G1 X83.83 Y89.861 E4.92048
G1 X84.397 Y90.07 E4.94058
G1 X84.755 Y90.183 E4.95306
G1 X85.519 Y90.372 E4.97924
G1 X85.894 Y90.442 E4.99193
G1 X86.266 Y90.497 E5.00444
G1 X86.657 Y90.54 E5.01752
G1 X87.275 Y90.572 E5.0381
G1 X87.655 Y90.576 E5.05074
G1 X88.253 Y90.544 E5.07066
G1 X88.84 Y90.489 E5.09027
G1 X89.403 Y90.388 E5.10929
G1 X89.883 Y90.277 E5.12568
G1 X90.341 Y90.156 E5.14143
G1 X90.927 Y89.956 E5.16203
G1 X91.285 Y89.815 E5.17483
G1 X91.807 Y89.576 E5.19392
G1 X92.278 Y89.329 E5.21161
G1 X92.729 Y89.062 E5.22904
G1 X93.196 Y88.748 E5.24776
G1 X93.607 Y88.439 E5.26486
G1 X93.932 Y88.165 E5.279
G1 X94.21 Y87.914 E5.29146
G1 X94.759 Y87.358 E5.31745
G1 X95.155 Y86.89 E5.33784
G1 X95.457 Y86.491 E5.35448
G1 X96.026 Y85.647 E5.38833
G1 X96.14 Y85.579 E5.39275
G1 X128.88 Y85.579 E6.48169
G1 X129.005 Y85.661 E6.48666
G1 X129.378 Y86.263 E6.51021
G1 X129.604 Y86.579 E6.52313
G1 X130.03 Y87.119 E6.54601
G1 X130.287 Y87.411 E6.55895
G1 X130.656 Y87.788 E6.57649
G1 X131.064 Y88.168 E6.59504
G1 X131.431 Y88.466 E6.61076
G1 X131.895 Y88.812 E6.63001
G1 X132.488 Y89.2 E6.65358
G1 X132.921 Y89.438 E6.67002
G1 X133.419 Y89.685 E6.68851
G1 X134.103 Y89.968 E6.71313
G1 X134.623 Y90.144 E6.73139
G1 X135.105 Y90.277 E6.74802
G1 X135.573 Y90.384 E6.76398
G1 X135.956 Y90.454 E6.77693
G1 X136.327 Y90.505 E6.78939
G1 X136.914 Y90.556 E6.80899
G1 X137.34 Y90.575 E6.82317
G1 X137.701 Y90.572 E6.83518
G1 X138.308 Y90.54 E6.85539
G1 X138.7 Y90.501 E6.8685
G1 X139.122 Y90.442 E6.88267
G1 X139.556 Y90.356 E6.89738
G1 X140.22 Y90.191 E6.92014
G1 X140.8 Y90.003 E6.94042
G1 X141.38 Y89.772 E6.96118
G1 X141.879 Y89.54 E6.97949
G1 X142.194 Y89.377 E6.99128
G1 X142.562 Y89.158 E7.00553
G1 X143.197 Y88.747 E7.03068
G1 X143.521 Y88.505 E7.04413
G1 X143.826 Y88.259 E7.05717
G1 X144.123 Y87.993 E7.07043
G1 X144.54 Y87.592 E7.08967
G1 X145.05 Y87.02 E7.11516
G1 X145.293 Y86.714 E7.12815
G1 X145.527 Y86.397 E7.14126
G1 X145.857 Y85.891 E7.16135
G1 X146.143 Y85.389 E7.18057
G1 X146.41 Y84.852 E7.20051
G1 X146.633 Y84.323 E7.21961
G1 X146.88 Y83.637 E7.24386
G1 X147.017 Y83.101 E7.26226
G1 X147.119 Y82.641 E7.27793
G1 X147.229 Y81.991 E7.29986
G1 X147.296 Y81.066 E7.3307
G1 X147.296 Y80.554 E7.34773
G1 X147.26 Y79.906 E7.36932
G1 X147.186 Y79.314 E7.38916
G1 X147.096 Y78.789 E7.40688
G1 X146.947 Y78.182 E7.42767
G1 X146.746 Y77.542 E7.44998
G1 X146.57 Y77.076 E7.46655
G1 X146.362 Y76.6 E7.48382
G1 X146.218 Y76.304 E7.49477
G1 X145.963 Y75.838 E7.51244
G1 X145.692 Y75.407 E7.52937
G1 X145.43 Y75.026 E7.54475
G1 X145.064 Y74.546 E7.56483
G1 X144.826 Y74.269 E7.57698
G1 X144.556 Y73.975 E7.59025
G1 X143.984 Y73.427 E7.6166
G1 X143.564 Y73.082 E7.63468
G1 X143.057 Y72.705 E7.65569
G1 X142.718 Y72.482 E7.66919
G1 X142.313 Y72.243 E7.68483
G1 X141.662 Y71.89 E7.70946
G1 X140.996 Y71.619 E7.73337
G1 X140.601 Y71.478 E7.74732
G1 X140.228 Y71.365 E7.76029
G1 X139.659 Y71.212 E7.77988
G1 X139.112 Y71.11 E7.79839
G1 X138.518 Y71.031 E7.81832
G1 X137.931 Y70.984 E7.83791
G1 X137.386 Y70.98 E7.85603
G1 X137.075 Y70.988 E7.86638
G1 X136.353 Y71.043 E7.89046
G1 X135.976 Y71.094 E7.90312
G1 X135.609 Y71.16 E7.91552
G1 X135.088 Y71.28 E7.9333
G1 X135.074 Y71.271 E7.93386
G1 X134.463 Y71.459 E7.95512
G1 X134.072 Y71.595 E7.96889
G1 X133.415 Y71.871 E7.99259
G1 X132.949 Y72.098 E8.00983
G1 X132.519 Y72.337 E8.02619
G1 X132.016 Y72.654 E8.04597
G1 X131.569 Y72.976 E8.06429
G1 X131.269 Y73.214 E8.07703
G1 X130.632 Y73.784 E8.10546
G1 X130.106 Y74.345 E8.13103
G1 X129.84 Y74.662 E8.1448
G1 X129.641 Y74.919 E8.15561
G1 X129.386 Y75.281 E8.17034
G1 X128.956 Y75.924 E8.19606
G1 X128.86 Y75.973 E8.19965
G1 X112.5 Y75.973 E8.74378
G1 F3000 E6.24378
G1 F300 Z0.4
G0 F9000 X137.388 Y78.818 Z0.4
G1 F300 Z0.2
G1 F3000 E8.74378
G1 F4500 X137.837 Y78.847 E8.75875
G1 X138.204 Y78.958 E8.7715
G1 X138.596 Y79.166 E8.78626
G1 X138.837 Y79.357 E8.79649
G1 X139.134 Y79.709 E8.81181
G1 X139.352 Y80.109 E8.82696
G1 X139.431 Y80.503 E8.84032
G1 X139.45 Y81.002 E8.85693
G1 X139.272 Y81.621 E8.87836
G1 X139.082 Y81.913 E8.88994
G1 X138.882 Y82.15 E8.90026
G1 X138.684 Y82.325 E8.90905
G1 X138.381 Y82.514 E8.92092
G1 X137.965 Y82.687 E8.93591
G1 X137.478 Y82.732 E8.95218
G1 X137.139 Y82.692 E8.96353
G1 X136.65 Y82.547 E8.98049
G1 X136.183 Y82.243 E8.99903
G1 X135.843 Y81.819 E9.0171
G1 X135.649 Y81.399 E9.03249
G1 X135.556 Y81 E9.04612
G1 X135.549 Y80.53 E9.06175
G1 X135.686 Y80.04 E9.07867
G1 X135.876 Y79.692 E9.09186
G1 X136.174 Y79.332 E9.1074
G1 X136.515 Y79.092 E9.12127
G1 X136.957 Y78.902 E9.13728
G1 X137.388 Y78.818 E9.15188
G1 F3000 E6.65188
G1 F300 Z0.4
G0 F9000 X137.051 Y83.082 Z0.4
;TYPE:WALL-INNER
G1 F300 Z0.2
G1 F3000 E9.15188
G1 F4500 X137.487 Y83.136 E9.16649
G1 X138.061 Y83.075 E9.18569
G1 X138.549 Y82.877 E9.20321
G1 X138.924 Y82.645 E9.21787
G1 X139.165 Y82.433 E9.22855
G1 X139.432 Y82.112 E9.24244
G1 X139.644 Y81.783 E9.25545
G1 X139.852 Y81.053 E9.2807
G1 X139.828 Y80.453 E9.30067
G1 X139.737 Y79.981 E9.31666
G1 X139.473 Y79.497 E9.335
G1 X139.118 Y79.068 E9.35352
G1 X138.788 Y78.813 E9.36739
G1 X138.354 Y78.587 E9.38366
G1 X137.91 Y78.45 E9.39912
G1 X137.374 Y78.417 E9.41698
G1 X136.824 Y78.521 E9.4356
G1 X136.298 Y78.751 E9.45469
G1 X135.879 Y79.052 E9.47185
G1 X135.549 Y79.461 E9.48933
G1 X135.315 Y79.89 E9.50558
G1 X135.152 Y80.48 E9.52594
G1 X135.155 Y81.021 E9.54393
G1 X135.262 Y81.505 E9.56042
G1 X135.495 Y82.025 E9.57937
G1 X135.905 Y82.539 E9.60124
G1 X136.501 Y82.926 E9.62488
G1 X137.051 Y83.082 E9.64389
G1 F3000 E7.14389
G1 F300 Z0.4
G0 F9000 X137.392 Y78.009 Z0.4
G1 F300 Z0.2
G1 F3000 E9.64389
G1 F4500 X137.99 Y78.057 E9.66385
G1 X138.52 Y78.218 E9.68227
G1 X139.039 Y78.499 E9.7019
G1 X139.393 Y78.776 E9.71685
G1 X139.787 Y79.241 E9.73712
G1 X140.105 Y79.812 E9.75886
G1 X140.22 Y80.373 E9.7779
G1 X140.261 Y81.082 E9.80153
G1 X140.011 Y81.95 E9.83157
G1 X139.747 Y82.36 E9.84779
G1 X139.442 Y82.721 E9.86351
G1 X139.183 Y82.951 E9.87503
G1 X138.779 Y83.209 E9.89097
G1 X138.164 Y83.468 E9.91317
G1 X137.495 Y83.538 E9.93554
G1 X136.962 Y83.472 E9.9534
G1 X136.316 Y83.283 E9.97579
G1 X135.62 Y82.824 E10.00352
G1 X135.151 Y82.232 E10.02864
G1 X134.882 Y81.63 E10.05057
G1 X134.757 Y81.065 E10.06982
G1 X134.745 Y80.425 E10.09111
G1 X134.94 Y79.735 E10.11495
G1 X135.223 Y79.23 E10.13421
G1 X135.587 Y78.777 E10.15354
G1 X136.076 Y78.416 E10.17375
G1 X136.706 Y78.135 E10.1967
G1 X137.392 Y78.009 E10.21989
G1 F3000 E7.71989
G1 F300 Z0.4
G0 F9000 X136.371 Y90.107 Z0.4
G1 F300 Z0.2
G1 F3000 E10.21989
G1 F4500 X136.019 Y90.059 E10.23171
G1 X135.653 Y89.992 E10.24409
G1 X135.203 Y89.889 E10.25944
G1 X134.741 Y89.762 E10.27538
G1 X134.244 Y89.593 E10.29284
G1 X133.585 Y89.321 E10.31655
G1 X133.106 Y89.084 E10.33432
G1 X132.694 Y88.857 E10.34997
G1 X132.125 Y88.484 E10.3726
G1 X131.677 Y88.15 E10.39118
G1 X131.326 Y87.866 E10.4062
G1 X130.936 Y87.502 E10.42394
G1 X130.58 Y87.139 E10.44085
G1 X130.338 Y86.863 E10.45306
G1 X129.924 Y86.339 E10.47527
G1 X129.709 Y86.039 E10.48755
G1 X129.296 Y85.384 E10.5133
G1 X129.108 Y85.238 E10.52122
G1 X128.926 Y85.176 E10.52762
G1 X96.18 Y85.176 E11.61675
G1 X95.968 Y85.214 E11.62392
G1 X95.72 Y85.389 E11.63401
G1 X95.131 Y86.259 E11.66896
G1 X94.843 Y86.64 E11.68484
G1 X94.461 Y87.09 E11.70447
G1 X93.936 Y87.623 E11.72936
G1 X93.669 Y87.863 E11.7413
G1 X93.357 Y88.126 E11.75487
G1 X92.964 Y88.422 E11.77123
G1 X92.515 Y88.724 E11.78923
G1 X92.083 Y88.979 E11.80592
G1 X91.631 Y89.217 E11.82291
G1 X91.129 Y89.447 E11.84127
G1 X90.789 Y89.58 E11.85341
G1 X90.225 Y89.773 E11.87324
G1 X89.787 Y89.889 E11.88831
G1 X89.323 Y89.996 E11.90415
G1 X88.786 Y90.093 E11.9223
G1 X88.224 Y90.145 E11.94107
G1 X87.647 Y90.176 E11.96029
G1 X87.287 Y90.172 E11.97226
G1 X86.689 Y90.141 E11.99218
G1 X86.317 Y90.1 E12.00463
G1 X85.96 Y90.048 E12.01663
G1 X85.604 Y89.981 E12.02868
G1 X84.863 Y89.798 E12.05406
G1 X84.526 Y89.691 E12.06582
G1 X83.977 Y89.489 E12.08528
G1 X83.622 Y89.34 E12.09808
G1 X83.28 Y89.176 E12.1107
G1 X82.653 Y88.828 E12.13455
G1 X82.327 Y88.625 E12.14732
G1 X81.785 Y88.236 E12.16951
G1 X81.502 Y88.012 E12.18152
G1 X81.213 Y87.764 E12.19418
G1 X80.723 Y87.289 E12.21688
G1 X80.476 Y87.02 E12.22903
G1 X80.16 Y86.644 E12.24536
G1 X79.685 Y86.002 E12.27193
G1 X79.478 Y85.676 E12.28477
G1 X79.108 Y85.012 E12.31005
G1 X78.948 Y84.677 E12.3224
G1 X78.735 Y84.176 E12.34051
G1 X78.606 Y83.82 E12.3531
G1 X78.417 Y83.186 E12.3751
G1 X78.284 Y82.615 E12.3946
G1 X78.206 Y82.178 E12.40937
G1 X78.134 Y81.587 E12.42917
G1 X78.106 Y81.032 E12.44765
G1 X78.101 Y80.624 E12.46122
G1 X78.123 Y80.094 E12.47887
G1 X78.187 Y79.5 E12.49874
G1 X78.27 Y78.985 E12.51609
G1 X78.352 Y78.619 E12.52856
G1 X78.504 Y78.049 E12.54818
G1 X78.682 Y77.512 E12.567
G1 X78.696 Y77.508 E12.56748
G1 X78.908 Y76.961 E12.587
G1 X79.115 Y76.521 E12.60317
G1 X79.343 Y76.106 E12.61892
G1 X79.646 Y75.614 E12.63814
G1 X80.022 Y75.079 E12.65989
G1 X80.258 Y74.78 E12.67256
G1 X80.629 Y74.357 E12.69127
G1 X81.292 Y73.716 E12.72194
G1 X81.686 Y73.39 E12.73895
G1 X81.919 Y73.213 E12.74868
G1 X82.338 Y72.918 E12.76573
G1 X82.753 Y72.664 E12.78191
G1 X83.304 Y72.364 E12.80278
G1 X83.638 Y72.206 E12.81506
G1 X84.386 Y71.902 E12.84192
G1 X84.951 Y71.732 E12.86154
G1 X85.6 Y71.568 E12.88381
G1 X86.511 Y71.425 E12.91448
G1 X86.893 Y71.396 E12.92722
G1 X87.486 Y71.377 E12.94695
G1 X88.065 Y71.392 E12.96622
G1 X88.611 Y71.44 E12.98445
G1 X89.248 Y71.539 E13.00589
G1 X89.599 Y71.613 E13.01782
G1 X89.95 Y71.703 E13.02987
G1 X90.258 Y71.796 E13.04057
G1 X90.27 Y71.786 E13.04109
G1 X90.895 Y72.015 E13.06323
G1 X91.475 Y72.261 E13.08419
G1 X91.912 Y72.482 E13.10047
G1 X92.393 Y72.754 E13.11885
G1 X92.781 Y73.004 E13.1342
G1 X93.248 Y73.342 E13.15338
G1 X93.528 Y73.567 E13.16533
G1 X93.906 Y73.903 E13.18215
G1 X94.268 Y74.258 E13.19901
G1 X94.606 Y74.626 E13.21563
G1 X94.947 Y75.042 E13.23352
G1 X95.316 Y75.557 E13.25459
G1 X95.669 Y76.128 E13.27692
G1 X95.947 Y76.339 E13.28853
G1 X96.156 Y76.376 E13.29559
G1 X112.5 Y76.376 E13.83919
G1 X128.82 Y76.376 E14.382
G1 X129.032 Y76.338 E14.38916
G1 X129.302 Y76.134 E14.40042
G1 X129.716 Y75.507 E14.4254
G1 X129.963 Y75.157 E14.43965
G1 X130.152 Y74.913 E14.44992
G1 X130.406 Y74.611 E14.46304
G1 X130.912 Y74.07 E14.48768
G1 X131.527 Y73.52 E14.51512
G1 X131.81 Y73.295 E14.52715
G1 X132.24 Y72.986 E14.54476
G1 X132.723 Y72.681 E14.56376
G1 X133.134 Y72.453 E14.57939
G1 X133.58 Y72.235 E14.5959
G1 X134.216 Y71.969 E14.61883
G1 X134.655 Y71.817 E14.63428
G1 X135.162 Y71.663 E14.65191
G1 X135.175 Y71.67 E14.6524
G1 X135.689 Y71.552 E14.66994
G1 X136.038 Y71.489 E14.68173
G1 X136.395 Y71.441 E14.69371
G1 X137.095 Y71.388 E14.71706
G1 X137.39 Y71.38 E14.72688
G1 X137.913 Y71.384 E14.74427
G1 X138.476 Y71.429 E14.76306
G1 X139.049 Y71.505 E14.78228
G1 X139.571 Y71.602 E14.79994
G1 X140.118 Y71.749 E14.81878
G1 X140.475 Y71.858 E14.8312
G1 X140.854 Y71.993 E14.84458
G1 X141.491 Y72.252 E14.86745
G1 X142.115 Y72.591 E14.89107
G1 X142.506 Y72.822 E14.90617
G1 X142.828 Y73.033 E14.91898
G1 X143.318 Y73.397 E14.93928
G1 X143.72 Y73.729 E14.95662
G1 X143.981 Y73.97 E14.96844
G1 X144.268 Y74.253 E14.98184
G1 X144.527 Y74.535 E14.99458
G1 X144.753 Y74.798 E15.00611
G1 X145.106 Y75.261 E15.02548
G1 X145.358 Y75.627 E15.04025
G1 X145.618 Y76.04 E15.05649
G1 X145.862 Y76.488 E15.07345
G1 X145.999 Y76.768 E15.08382
G1 X146.2 Y77.227 E15.10049
G1 X146.368 Y77.672 E15.11631
G1 X146.561 Y78.29 E15.13784
G1 X146.704 Y78.871 E15.15774
G1 X146.79 Y79.373 E15.17468
G1 X146.862 Y79.942 E15.19376
G1 X146.896 Y80.565 E15.21451
